X:556
T:BAdd556- The Restoration of King Charles
S:(When the King enjoys...) Dancing Master, Vol III
Q:1/4=120
L:1/4
M:C|
K:C
GGcc|d/e/f/d/ e c/e/|eABc/d/|d3/2 c/c2||\
d/c/B/c/ d3/2 e/|d/c/B/c/ d3/2 e/|fAB/d/c/B/|\
A3/2 G/ G e/f/|g/a/g/f/ e d/c/|d/e/f/d/ e d/e/|\
fAGc/d/|d3/2 c/c2||]

